img/svg/photoshop.svg

<?xml version="1.0" encoding="iso-8859-1"?>
<!-- Generator: Adobe Illustrator 19.0.0, SVG Export Plug-In . SVG Version: 6.00 Build 0)  -->
<svg version="1.1" id="Capa_1" xmlns="http://www.w3.org/2000/svg" xmlns:xlink="http://www.w3.org/1999/xlink" x="0px" y="0px"
	 viewBox="0 0 512 512" style="enable-background:new 0 0 512 512;" xml:space="preserve">
<g>
	<g>
		<path d="M0,0v512h512V0H0z M482,482H30V30h452V482z"/>
	</g>
</g>
<g>
	<g>
		<path d="M213.102,181.6h-72.24V352h33.12v-57.12h40.32c29.531,0,53.04-25.713,53.04-56.64
			C267.342,212,246.166,181.6,213.102,181.6z M212.382,265.84h-38.4v-55.2h36.96c14.057,0,22.8,13.2,22.8,27.6
			C233.742,255,224,265.84,212.382,265.84z"/>
	</g>
</g>
<g>
	<g>
		<path d="M336.939,276.64c-4.642-1.118-24.72-4.39-24.72-15.84c0-9.175,7.531-14.16,19.2-14.16c15.831,0,30.079,9.12,36.48,13.92
			l12.96-19.44c-6.881-6.079-21.609-17.28-49.2-17.28c-26.284,0-49.44,14.91-49.44,41.52c0,27.64,36.72,32.801,44.88,35.04
			c9.757,2.723,27.6,6.225,27.6,17.04c0,8.81-8.449,13.92-20.64,13.92c-18.809,0-36.48-11.119-44.16-16.56l-12,20.16
			c7.2,6.24,27.851,19.44,56.88,19.44c15.679,0,50.88-4.9,50.88-39.84C385.659,285,345.579,278.882,336.939,276.64z"/>
	</g>
</g>
<g>
</g>
<g>
</g>
<g>
</g>
<g>
</g>
<g>
</g>
<g>
</g>
<g>
</g>
<g>
</g>
<g>
</g>
<g>
</g>
<g>
</g>
<g>
</g>
<g>
</g>
<g>
</g>
<g>
</g>
</svg>

<svg width="512" height="512" viewBox="0 0 512 512" fill="none" xmlns="http://www.w3.org/2000/svg">
<path d="M0 0V512H512V0H0ZM482 482H30V30H482V482Z" fill="black"/>
<path d="M213.102 181.6H140.862V352H173.982V294.88H214.302C243.833 294.88 267.342 269.167 267.342 238.24C267.342 212 246.166 181.6 213.102 181.6ZM212.382 265.84H173.982V210.64H210.942C224.999 210.64 233.742 223.84 233.742 238.24C233.742 255 224 265.84 212.382 265.84Z" fill="black"/>
<path d="M336.939 276.64C332.297 275.522 312.219 272.25 312.219 260.8C312.219 251.625 319.75 246.64 331.419 246.64C347.25 246.64 361.498 255.76 367.899 260.56L380.859 241.12C373.978 235.041 359.25 223.84 331.659 223.84C305.375 223.84 282.219 238.75 282.219 265.36C282.219 293 318.939 298.161 327.099 300.4C336.856 303.123 354.699 306.625 354.699 317.44C354.699 326.25 346.25 331.36 334.059 331.36C315.25 331.36 297.579 320.241 289.899 314.8L277.899 334.96C285.099 341.2 305.75 354.4 334.779 354.4C350.458 354.4 385.659 349.5 385.659 314.56C385.659 285 345.579 278.882 336.939 276.64Z" fill="black"/>
</svg>
